src/icons/logomark.svg

<svg xmlns="http://www.w3.org/2000/svg" xml:space="preserve" style="fill-rule:evenodd;clip-rule:evenodd;stroke-linecap:round;stroke-linejoin:round;stroke-miterlimit:1.5" viewBox="0 0 141 140"><path d="M0 0h1920v1080H0z" style="fill:none" transform="matrix(.07292 0 0 .12963 .5 0)"/><path d="M284 39.01c.165-.007.332-.01.5-.01h0c6.904 0 12.5 5.596 12.5 12.5h0c0 1.768-.367 3.45-1.029 4.974 5.302 1.472 9.722 4.346 9.722 9.865 0 1.033-.164 1.972-.491 2.822 4.18 1.852 7.11 4.725 7.11 9.163 0 1.35-.493 2.549-1.37 3.609C314.593 83.583 317 86.116 317 90c0 2.262-.867 4.254-2.575 5.955.488.07.942.139 1.362.205a4.285 4.285 0 0 1 3.21 5.146l-.106.452-9.981 39.962c-1.056 4.632-12.262 8.28-25.91 8.28s-24.854-3.648-25.91-8.28h-.008l-9.973-39.962-.106-.452a4.28 4.28 0 0 1 3.21-5.146c.42-.066.874-.135 1.362-.205C249.867 94.254 249 92.262 249 90c0-3.884 2.407-6.417 6.058-8.067-.877-1.06-1.37-2.259-1.37-3.609 0-4.438 2.93-7.311 7.11-9.163-.327-.85-.491-1.789-.491-2.822 0-5.521 4.422-8.395 9.725-9.866A12.5 12.5 0 0 1 269 51.5s0 0 0 0A12.501 12.501 0 0 1 281.5 39h2.5v.01Zm-36.835 62.9.099.268a3.627 3.627 0 0 1-.099-.268Zm71.67 0a3.627 3.627 0 0 1-.099.268l.099-.268Z" style="fill:none;stroke:#000;stroke-width:10px" transform="translate(-212.5 -24)"/><path d="m6009.34 94.002 1.26.033.28.015c15.6.25 25.03 1.34 29.91 2.11a4.286 4.286 0 0 1 3.21 5.146c-.07.279-.11.452-.11.452L6039 115h-62l-4.89-13.242s-.04-.173-.11-.452a4.286 4.286 0 0 1 3.21-5.146c4.88-.77 14.31-1.86 29.91-2.11l.28-.015 1.26-.033L6008 94l1.34.002Z" style="fill:#d99e5c" transform="translate(-5937.504 -24)"/><path d="M259.274 144.68c-1.187-.916-1.945-1.913-2.184-2.96h-.008l-9.973-39.962h.011c.327 1.231 1.457 2.4 3.245 3.466l1.674 3.816 1.882-2.142a43.962 43.962 0 0 0 4.677 1.458l1.65 2.427 1.607-1.684c2.562.519 5.38.945 8.389 1.263l1.157 2.283 1.968-1.999c2.587.2 5.293.321 8.081.354l1.23 1.037 1.87-1.037c2.786-.033 5.491-.154 8.081-.354l.614 1.391 2.511-1.675c3.01-.318 5.827-.744 8.389-1.263l1.535 1.263 1.722-2.006a43.804 43.804 0 0 0 4.677-1.458l1.363 1.458 2.193-3.132c1.788-1.066 2.918-2.235 3.245-3.466h.011l-9.981 39.962c-.239 1.047-.997 2.044-2.184 2.96l-1.359-1.186-2.278 3.216c-.592.249-1.223.488-1.888.714l-.987-1.757-2.303 2.705a52.416 52.416 0 0 1-4.666.901l-1.433-2.449-1.698 2.834a71.615 71.615 0 0 1-5.564.326l-1.663-2.028-1.437 2.028a71.674 71.674 0 0 1-5.564-.326l-1.975-2.114-1.156 1.729a52.416 52.416 0 0 1-4.666-.901l-1.963-2.199-1.327 1.251a28.902 28.902 0 0 1-1.888-.714l-2.545-3.281-1.092 1.251Z" style="fill:#eddbb1" transform="translate(-212.495 -24)"/><path d="M284.55 111v38.984a72.408 72.408 0 0 1-3.1 0V111a132.837 132.837 0 0 0 3.1 0Zm11.206-.638-2.511 38.911c-1.012.151-2.057.28-3.131.385l2.517-39.012c1.062-.082 2.105-.177 3.125-.284Zm-25.512 0c1.021.107 2.063.203 3.125.284l2.517 39.012a62.468 62.468 0 0 1-3.131-.385l-2.511-38.911Zm37.158-2.006-6.201 39.068a38.579 38.579 0 0 1-3.29.948l6.234-39.273a64.454 64.454 0 0 0 3.257-.743Zm-48.804 0c1.032.265 2.119.513 3.257.743l6.234 39.273a38.792 38.792 0 0 1-3.29-.948l-6.201-39.068Zm57.037-3.132-8.909 39.456c-.952.734-2.179 1.416-3.637 2.03l8.99-39.812c1.371-.522 2.565-1.082 3.556-1.674Zm-65.27 0c.991.592 2.185 1.152 3.556 1.674l8.99 39.812c-1.458-.614-2.685-1.296-3.637-2.03l-8.909-39.456Z" style="fill:#d1bf94" transform="translate(-212.495 -24)"/><path d="M6008 104.081c-23.52 0-35.96-5.05-35.96-14.05C5972.04 77.304 5995.45 78 6008 78s35.96-.696 35.96 12.031c0 9-12.44 14.05-35.96 14.05Z" style="fill:#2baeef" transform="matrix(.94556 0 0 .9253 -5610.392 -17.305)"/><path d="M6008 102.948c-14.72 0-35.96-3-35.96-12 0-12.727 23.41-14 35.96-14s35.96 1.273 35.96 14c0 9-21.24 12-35.96 12Z" style="fill:#71c8f4" transform="matrix(.81519 0 0 .8897 -4827.122 -26.593)"/><path d="M6003.72 103.264c-20.75-.396-31.68-3.827-31.68-12.264 0-12.727 23.41-14.303 35.96-14.303l2.47.021c12.92.219 33.49 2.35 33.49 14.282 0 9-12.44 12.303-35.96 12.303l-4.28-.039Z" style="fill:#c7eafb" transform="matrix(.63111 0 0 .79273 -3721.21 -29.8)"/><path d="M284.5 39h-3c-6.904 0-12.5 5.596-12.5 12.5 0 3.888 1.775 7.362 4.56 9.655l2.751.332c.263.032.527.061.79.089C274.008 59.301 277.596 39 284.5 39Z" style="fill:#ef2e94" transform="translate(-212.495 -24)"/><path d="M277.101 61.576c4.137.436 8.312.378 12.436-.175l3.104-.415A12.47 12.47 0 0 0 297 51.5c0-6.904-5.596-12.5-12.5-12.5S272 44.596 272 51.5c0 4.135 2.007 7.8 5.101 10.076Z" style="fill:#f35dac" transform="translate(-212.495 -24)"/><path d="m4884.17 43.944 11.78 6.284-11.78 6.283" style="fill:none;stroke:#c9096e;stroke-width:4.71px" transform="matrix(.63656 0 0 .63656 -3043.57 -4.473)"/></svg>

<?xml version="1.0" encoding="UTF-8" standalone="no"?>
<!DOCTYPE svg PUBLIC "-//W3C//DTD SVG 1.1//EN" "http://www.w3.org/Graphics/SVG/1.1/DTD/svg11.dtd">
<svg width="100%" height="100%" viewBox="0 0 141 140" version="1.1" xmlns="http://www.w3.org/2000/svg" xmlns:xlink="http://www.w3.org/1999/xlink" xml:space="preserve" xmlns:serif="http://www.serif.com/" style="fill-rule:evenodd;clip-rule:evenodd;stroke-linecap:round;stroke-linejoin:round;stroke-miterlimit:1.5;">
    <g transform="matrix(1,0,0,1,-213,-24)">
        <g id="compression" transform="matrix(0.0729167,0,0,0.12963,213.5,24)">
            <rect x="0" y="0" width="1920" height="1080" style="fill:none;"/>
            <g transform="matrix(13.7143,0,0,7.71429,-2921.14,-185.143)">
                <g id="outline">
                    <path d="M284,39.01C284.165,39.003 284.332,39 284.5,39L284.5,39C291.404,39 297,44.596 297,51.5L297,51.5C297,53.268 296.633,54.95 295.971,56.474C301.273,57.946 305.693,60.82 305.693,66.339C305.693,67.372 305.529,68.311 305.202,69.161C309.382,71.013 312.312,73.886 312.312,78.324C312.312,79.674 311.819,80.873 310.942,81.933C314.593,83.583 317,86.116 317,90C317,92.262 316.133,94.254 314.425,95.955C314.913,96.025 315.367,96.094 315.787,96.16C316.896,96.416 317.857,97.102 318.459,98.067C319.062,99.032 319.255,100.198 318.997,101.306C318.931,101.585 318.891,101.758 318.891,101.758L308.91,141.72C307.854,146.352 296.648,150 283,150C269.352,150 258.146,146.352 257.09,141.72L257.082,141.72L247.109,101.758L247.003,101.306C246.745,100.198 246.938,99.032 247.541,98.067C248.143,97.102 249.104,96.416 250.213,96.16C250.633,96.094 251.087,96.025 251.575,95.955C249.867,94.254 249,92.262 249,90C249,86.116 251.407,83.583 255.058,81.933C254.181,80.873 253.688,79.674 253.688,78.324C253.688,73.886 256.618,71.013 260.798,69.161C260.471,68.311 260.307,67.372 260.307,66.339C260.307,60.818 264.729,57.944 270.032,56.473C269.358,54.918 269,53.228 269,51.5C269,51.5 269,51.5 269,51.5C269,48.185 270.317,45.005 272.661,42.661C275.005,40.317 278.185,39 281.5,39L284,39L284,39.01ZM247.165,101.91L247.264,102.178C247.227,102.089 247.194,101.999 247.165,101.91ZM318.835,101.91C318.806,101.999 318.773,102.089 318.736,102.178L318.835,101.91Z" style="fill:none;stroke:black;stroke-width:10px;"/>
                </g>
            </g>
            <g id="main" transform="matrix(13.7143,0,0,7.71429,-81442.3,-185.143)">
                <g transform="matrix(1,0,0,1,0.5,0)">
                    <path d="M6009.34,94.002C6009.76,94.013 6010.18,94.024 6010.6,94.035L6010.88,94.05C6026.48,94.3 6035.91,95.39 6040.79,96.16C6041.9,96.416 6042.86,97.102 6043.46,98.067C6044.06,99.032 6044.26,100.198 6044,101.306C6043.93,101.585 6043.89,101.758 6043.89,101.758L6039,115L5977,115L5972.11,101.758C5972.11,101.758 5972.07,101.585 5972,101.306C5971.74,100.198 5971.94,99.032 5972.54,98.067C5973.14,97.102 5974.1,96.416 5975.21,96.16C5980.09,95.39 5989.52,94.3 6005.12,94.05L6005.4,94.035C6005.82,94.024 6006.24,94.013 6006.66,94.002L6008,94L6009.34,94.002Z" style="fill:rgb(217,158,92);"/>
                </g>
                <g transform="matrix(1,0,0,1,5725.5,0)">
                    <path d="M259.274,144.68C258.087,143.764 257.329,142.767 257.09,141.72L257.082,141.72L247.109,101.758L247.12,101.758C247.447,102.989 248.577,104.158 250.365,105.224L252.039,109.04L253.921,106.898C255.307,107.425 256.874,107.914 258.598,108.356L260.248,110.783L261.855,109.099C264.417,109.618 267.235,110.044 270.244,110.362L271.401,112.645L273.369,110.646C275.956,110.846 278.662,110.967 281.45,111L282.68,112.037L284.55,111C287.336,110.967 290.041,110.846 292.631,110.646L293.245,112.037L295.756,110.362C298.766,110.044 301.583,109.618 304.145,109.099L305.68,110.362L307.402,108.356C309.125,107.914 310.693,107.426 312.079,106.898L313.442,108.356L315.635,105.224C317.423,104.158 318.553,102.989 318.88,101.758L318.891,101.758L308.91,141.72C308.671,142.767 307.913,143.764 306.726,144.68L305.367,143.494L303.089,146.71C302.497,146.959 301.866,147.198 301.201,147.424L300.214,145.667L297.911,148.372C296.458,148.725 294.896,149.028 293.245,149.273L291.812,146.824L290.114,149.658C288.33,149.834 286.468,149.945 284.55,149.984L282.887,147.956L281.45,149.984C279.533,149.945 277.671,149.834 275.886,149.658L273.911,147.544L272.755,149.273C271.104,149.028 269.542,148.725 268.089,148.372L266.126,146.173L264.799,147.424C264.134,147.198 263.504,146.959 262.911,146.71L260.366,143.429L259.274,144.68Z" style="fill:rgb(237,219,177);"/>
                </g>
                <g transform="matrix(1,0,0,1,5725.5,0)">
                    <path d="M284.55,111L284.55,149.984C284.036,149.995 283.52,150 283,150C282.48,150 281.964,149.995 281.45,149.984L281.45,111C281.964,111.006 282.481,111.009 283,111.009C283.519,111.009 284.036,111.006 284.55,111ZM295.756,110.362L293.245,149.273C292.233,149.424 291.188,149.553 290.114,149.658L292.631,110.646C293.693,110.564 294.736,110.469 295.756,110.362ZM270.244,110.362C271.265,110.469 272.307,110.565 273.369,110.646L275.886,149.658C274.813,149.553 273.767,149.424 272.755,149.273L270.244,110.362ZM307.402,108.356L301.201,147.424C300.183,147.77 299.083,148.087 297.911,148.372L304.145,109.099C305.283,108.869 306.37,108.621 307.402,108.356ZM258.598,108.356C259.63,108.621 260.717,108.869 261.855,109.099L268.089,148.372C266.918,148.087 265.818,147.77 264.799,147.424L258.598,108.356ZM315.635,105.224L306.726,144.68C305.774,145.414 304.547,146.096 303.089,146.71L312.079,106.898C313.45,106.376 314.644,105.816 315.635,105.224ZM250.365,105.224C251.356,105.816 252.55,106.376 253.921,106.898L262.911,146.71C261.453,146.096 260.226,145.414 259.274,144.68L250.365,105.224Z" style="fill:rgb(209,191,148);"/>
                </g>
                <g transform="matrix(0.945554,0,0,0.92529,327.611,6.69517)">
                    <path d="M6008,104.081C5984.48,104.081 5972.04,99.031 5972.04,90.031C5972.04,77.304 5995.45,78 6008,78C6020.55,78 6043.96,77.304 6043.96,90.031C6043.96,99.031 6031.52,104.081 6008,104.081Z" style="fill:rgb(43,174,239);"/>
                </g>
                <g transform="matrix(0.815184,0,0,0.889702,1110.88,-2.59332)">
                    <path d="M6008,102.948C5993.28,102.948 5972.04,99.948 5972.04,90.948C5972.04,78.221 5995.45,76.948 6008,76.948C6020.55,76.948 6043.96,78.221 6043.96,90.948C6043.96,99.948 6022.72,102.948 6008,102.948Z" style="fill:rgb(113,200,244);"/>
                </g>
                <g transform="matrix(0.63111,-3.5933e-16,0,0.792732,2216.79,-5.79992)">
                    <path d="M6003.72,103.264C5982.97,102.868 5972.04,99.437 5972.04,91C5972.04,78.273 5995.45,76.697 6008,76.697L6010.47,76.718C6023.39,76.937 6043.96,79.068 6043.96,91C6043.96,100 6031.52,103.303 6008,103.303L6003.72,103.264Z" style="fill:rgb(199,234,251);"/>
                </g>
                <g transform="matrix(1,0,0,1,5725.5,0)">
                    <path d="M284.5,39C284.5,39 281.5,39 281.5,39C274.596,39 269,44.596 269,51.5C269,51.5 269,51.5 269,51.5C269,55.388 270.775,58.862 273.56,61.155L276.311,61.487C276.574,61.519 276.838,61.548 277.101,61.576C274.008,59.301 277.596,39 284.5,39Z" style="fill:rgb(239,46,148);"/>
                </g>
                <g transform="matrix(1,0,0,1,5725.5,0)">
                    <path d="M277.101,61.576C281.238,62.012 285.413,61.954 289.537,61.401L292.641,60.986C295.31,58.694 297,55.294 297,51.5L297,51.5C297,44.596 291.404,39 284.5,39L284.5,39C277.596,39 272,44.596 272,51.5L272,51.5C272,55.635 274.007,59.3 277.101,61.576Z" style="fill:rgb(243,93,172);"/>
                </g>
                <g transform="matrix(0.636561,0,0,0.636561,2894.43,19.527)">
                    <path d="M4884.17,43.944L4895.95,50.228L4884.17,56.511" style="fill:none;stroke:rgb(201,9,110);stroke-width:4.71px;"/>
                </g>
            </g>
        </g>
    </g>
</svg>
